icons/op-rubber-24.svg

<svg width="24" height="24" viewBox="0 0 24 24" fill="none" xmlns="http://www.w3.org/2000/svg">
<path d="M20 19.4667C20 19.749 19.7735 20 19.45 20H5.18099C4.88979 20 4.63094 19.749 4.63094 19.4667C4.63094 19.1843 4.88979 18.9333 5.18099 18.9333H19.45C19.7735 18.9333 20 19.1843 20 19.4667ZM19.1587 8.70588L14.6936 4.3451C14.4671 4.12549 14.1759 4 13.9171 4C13.6259 4 13.3347 4.09412 13.1405 4.31373L4.33974 12.8471C3.88675 13.2549 3.88675 13.9451 4.33974 14.3529L6.8635 16.9569C7.28413 17.3961 8.12538 17.8667 8.74014 17.8667H10.4226C11.0374 17.8667 11.8787 17.3961 12.2993 16.9569L19.1587 10.2431C19.5794 9.83529 19.5794 9.11373 19.1587 8.70588ZM11.3933 16.2039C11.1992 16.4235 10.7462 16.8 10.4226 16.8H8.74014C8.41658 16.8 7.86653 16.4235 7.64004 16.2039L5.11628 13.6941L9.09606 9.77255L13.5288 14.0706L11.3933 16.2039Z" fill="black"/>
</svg>

<svg xmlns="http://www.w3.org/2000/svg" width="24" height="24" viewBox="0 0 24 24"><path d="M20 19.467a.537.537 0 0 1-.55.533H5.181c-.291 0-.55-.251-.55-.533 0-.283.259-.534.55-.534H19.45c.323 0 .55.251.55.534Zm-.841-10.761-4.465-4.361c-.227-.22-.518-.345-.777-.345-.291 0-.582.094-.777.314l-8.8 8.533a1.004 1.004 0 0 0 0 1.506l2.524 2.604c.42.439 1.261.91 1.876.91h1.683c.614 0 1.456-.471 1.876-.91l6.86-6.714c.42-.408.42-1.129 0-1.537Zm-7.766 7.498c-.194.22-.647.596-.97.596H8.74c-.323 0-.873-.376-1.1-.596l-2.524-2.51 3.98-3.921 4.433 4.298-2.136 2.133Z"/></svg>
